assets/img/icons/doctor.svg

<svg width="48" height="48" fill="none" xmlns="http://www.w3.org/2000/svg"><path d="M44 46c0 1.106-.894 2-2 2H6c-1.106 0-2-.894-2-2 0-7.05 4.084-13.148 10-16.1v6.656c-1.19.692-2 1.968-2 3.446 0 2.21 1.79 4 4 4s4-1.79 4-4c0-1.476-.81-2.752-2-3.446v-8.092A17.942 17.942 0 0 1 22 28h4c.676 0 1.342.044 2 .118v8.25c-2.322.828-4 3.028-4 5.632v2c0 1.106.894 2 2 2 1.106 0 2-.894 2-2v-2a2 2 0 0 1 4 0v2c0 1.106.894 2 2 2 1.106 0 2-.894 2-2v-2c0-2.604-1.678-4.804-4-5.632V29.05c6.98 2.478 12 9.13 12 16.95Zm-8-34c0-6.618-5.382-12-12-12S12 5.382 12 12s5.382 12 12 12 12-5.382 12-12Z" fill="#BF1F1F"/></svg>

<svg width="48" height="48" viewBox="0 0 48 48" fill="none" xmlns="http://www.w3.org/2000/svg">
<path d="M44 46C44 47.106 43.106 48 42 48H6C4.894 48 4 47.106 4 46C4 38.95 8.084 32.852 14 29.9V36.556C12.81 37.248 12 38.524 12 40.002C12 42.212 13.79 44.002 16 44.002C18.21 44.002 20 42.212 20 40.002C20 38.526 19.19 37.25 18 36.556V28.464C19.288 28.17 20.624 28 22 28H26C26.676 28 27.342 28.044 28 28.118V36.368C25.678 37.196 24 39.396 24 42V44C24 45.106 24.894 46 26 46C27.106 46 28 45.106 28 44V42C28 40.896 28.896 40 30 40C31.104 40 32 40.896 32 42V44C32 45.106 32.894 46 34 46C35.106 46 36 45.106 36 44V42C36 39.396 34.322 37.196 32 36.368V29.05C38.98 31.528 44 38.18 44 46ZM36 12C36 5.382 30.618 0 24 0C17.382 0 12 5.382 12 12C12 18.618 17.382 24 24 24C30.618 24 36 18.618 36 12Z" fill="#BF1F1F"/>
</svg>
